src/assets/svgs/layout/bottom-right.svg

<svg fill="none" height="424" viewBox="0 0 424 424" width="424" xmlns="http://www.w3.org/2000/svg"><path d="m316.242 323.329c59.507-44.139 71.965-128.161 27.825-187.667-44.139-59.5068-128.16-71.9645-187.667-27.825-59.5066 44.139-71.9643 128.161-27.825 187.667 44.139 59.507 128.161 71.965 187.667 27.825z" fill="#fff"/><path d="m276.013 317.245-61.351-78.936c1.512-1.175 2.936-2.465 4.229-3.832l72.585 68.749c-4.765 5.031-9.965 9.747-15.463 14.019zm-22.645 14.313c-6.23 3.133-12.75 5.808-19.384 7.952l-30.746-95.128c1.78-.576 3.534-1.295 5.205-2.136zm54.614-49.623-84.671-53.156c.996-1.585 1.878-3.263 2.619-4.983l91.793 39.612c-2.76 6.395-6.038 12.629-9.741 18.527zm-100.32 63.288c-6.907.799-13.935 1.072-20.888.812l3.73-99.905c1.892.071 3.803-.003 5.678-.219zm118.238-107.382-97.743-21.009c.401-1.862.661-3.767.776-5.661l99.793 5.994c-.417 6.929-1.368 13.887-2.826 20.676zm-165.687 104.592c-6.778-1.601-13.479-3.737-19.92-6.346l37.526-92.663c1.74.705 3.557 1.283 5.399 1.719zm167.497-152.115-99.049 13.566c-.256-1.87-.657-3.726-1.191-5.519l95.819-28.521c1.985 6.673 3.475 13.561 4.421 20.474zm-211.237 133.278c-5.839-3.837-11.423-8.157-16.5965-12.84l67.0865-74.123c1.378 1.246 2.865 2.399 4.425 3.424zm196.623-178.683-88.361 46.772c-.882-1.67-1.911-3.299-3.057-4.844l-.224-.301 80.296-59.56.224.301c4.143 5.585 7.885 11.518 11.122 17.632zm-231.3063 145.925-.1119-.151c-4.0819-5.503-7.7753-11.347-10.9816-17.368l88.2538-46.972c.878 1.649 1.894 3.256 3.025 4.78zm134.8563-109.543c-1.391-1.254-2.888-2.407-4.446-3.426l54.73-83.662c5.833 3.8153 11.421 8.119 16.611 12.791zm-60.443 38.377-95.7544 28.741c-2.0066-6.689-3.511-13.586-4.4691-20.503l99.0305-13.717c.254 1.851.656 3.694 1.193 5.479zm49.572-45.154c-1.753-.705-3.578-1.281-5.42-1.714l22.8-97.338c6.77 1.584 13.471 3.7043 19.919 6.2969zm-51.06 32.354-99.8058-5.771c.4011-6.938 1.337-13.9 2.7841-20.696l97.7827 20.818c-.397 1.856-.651 3.756-.761 5.649zm38.354-35.039c-1.892-.066-3.801.011-5.673.233l-11.706-99.2859c6.906-.8148 13.937-1.1046 20.895-.8597zm-35.381 22.415-91.8745-39.421c2.75-6.409 6.0151-12.65 9.7015-18.55l84.78 52.982c-.988 1.581-1.865 3.259-2.607 4.989zm22.642-20.634c-1.775.577-3.521 1.297-5.194 2.143l-45.114-89.2158c6.229-3.1497 12.747-5.84 19.376-7.9968zm-15.626 9.934-72.7286-68.595c4.7542-5.041 9.9486-9.769 15.4346-14.052l61.517 78.807c-1.509 1.177-2.931 2.469-4.223 3.84z" fill="#c1cb8b"/></svg>

<svg width="424" height="424" viewBox="0 0 424 424" fill="none" xmlns="http://www.w3.org/2000/svg">
<path d="M316.242 323.329C375.749 279.19 388.207 195.168 344.067 135.662C299.928 76.1552 215.907 63.6975 156.4 107.837C96.8934 151.976 84.4357 235.998 128.575 295.504C172.714 355.011 256.736 367.469 316.242 323.329Z" fill="white"/>
<path d="M276.013 317.245L214.662 238.309C216.174 237.134 217.598 235.844 218.891 234.477L291.476 303.226C286.711 308.257 281.511 312.973 276.013 317.245ZM253.368 331.558C247.138 334.691 240.618 337.366 233.984 339.51L203.238 244.382C205.018 243.806 206.772 243.087 208.443 242.246L253.368 331.558ZM307.982 281.935L223.311 228.779C224.307 227.194 225.189 225.516 225.93 223.796L317.723 263.408C314.963 269.803 311.685 276.037 307.982 281.935ZM207.662 345.223C200.755 346.022 193.727 346.295 186.774 346.035L190.504 246.13C192.396 246.201 194.307 246.127 196.182 245.911L207.662 345.223ZM325.9 237.841L228.157 216.832C228.558 214.97 228.818 213.065 228.933 211.171L328.726 217.165C328.309 224.094 327.358 231.052 325.9 237.841ZM160.213 342.433C153.435 340.832 146.734 338.696 140.293 336.087L177.819 243.424C179.559 244.129 181.376 244.707 183.218 245.143L160.213 342.433ZM327.71 190.318L228.661 203.884C228.405 202.014 228.004 200.158 227.47 198.365L323.289 169.844C325.274 176.517 326.764 183.405 327.71 190.318ZM116.473 323.596C110.634 319.759 105.05 315.439 99.8765 310.756L166.963 236.633C168.341 237.879 169.828 239.032 171.388 240.057L116.473 323.596ZM313.096 144.913L224.735 191.685C223.853 190.015 222.824 188.386 221.678 186.841L221.454 186.54L301.75 126.98L301.974 127.281C306.117 132.866 309.859 138.799 313.096 144.913ZM81.7897 290.838L81.6778 290.687C77.5959 285.184 73.9025 279.34 70.6962 273.319L158.95 226.347C159.828 227.996 160.844 229.603 161.975 231.127L81.7897 290.838ZM216.646 181.295C215.255 180.041 213.758 178.888 212.2 177.869L266.93 94.207C272.763 98.0223 278.351 102.326 283.541 106.998L216.646 181.295ZM156.203 219.672L60.4486 248.413C58.442 241.724 56.9376 234.827 55.9795 227.91L155.01 214.193C155.264 216.044 155.666 217.887 156.203 219.672ZM205.775 174.518C204.022 173.813 202.197 173.237 200.355 172.804L223.155 75.466C229.925 77.05 236.626 79.1703 243.074 81.7629L205.775 174.518ZM154.715 206.872L54.9092 201.101C55.3103 194.163 56.2462 187.201 57.6933 180.405L155.476 201.223C155.079 203.079 154.825 204.979 154.715 206.872ZM193.069 171.833C191.177 171.767 189.268 171.844 187.396 172.066L175.69 72.7801C182.596 71.9653 189.627 71.6755 196.585 71.9204L193.069 171.833ZM157.688 194.248L65.8135 154.827C68.5635 148.418 71.8286 142.177 75.515 136.277L160.295 189.259C159.307 190.84 158.43 192.518 157.688 194.248ZM180.33 173.614C178.555 174.191 176.809 174.911 175.136 175.757L130.022 86.5412C136.251 83.3915 142.769 80.7012 149.398 78.5444L180.33 173.614ZM164.704 183.548L91.9754 114.953C96.7296 109.912 101.924 105.184 107.41 100.901L168.927 179.708C167.418 180.885 165.996 182.177 164.704 183.548Z" fill="#C1CB8B"/>
</svg>
